static/assets/images/products/kubestash/addons/mongodb-stash-addon.svg

<svg width="32" height="32" viewBox="0 0 32 32" fill="none" xmlns="http://www.w3.org/2000/svg">
<g clip-path="url(#clip0)">
<path d="M23.8782 11.533C24.0731 11.1431 24.268 10.7533 24.4954 10.3635C25.3726 8.83655 26.3797 7.40711 27.5168 6.04264V6.07513V6.04264L27.5817 6.1401V5.00305C27.5492 2.24162 21.4091 0 13.8396 0C6.27006 0 0.0974731 2.24162 0.0974731 5.00305V8.64162C0.0974731 11.403 6.23757 13.6447 13.8396 13.6447C17.1533 13.7096 20.4345 13.1898 23.5533 12.1827C23.6508 11.9553 23.7482 11.7279 23.8782 11.533ZM30.733 13.1574C30.3432 12.0528 29.7259 11.0132 28.9137 10.1685C28.3939 9.55127 27.9716 8.83655 27.6467 8.12183C26.7696 9.2264 25.9899 10.3959 25.3076 11.6305C25.1452 11.9228 24.9828 12.2477 24.8203 12.5726C20.8244 20.9218 26.9645 24.6904 26.9645 24.6904C27.1594 25.4701 27.2893 26.2497 27.3218 27.0619H28.2315L28.3614 24.6254C29.531 23.4558 30.5056 22.0914 31.2203 20.597C31.8701 18.1279 31.6751 15.5289 30.733 13.1574Z" fill="#1971BD"/>
<path d="M1.03956 18.1929C3.5086 17.6731 5.75022 18.1929 7.602 20.0122C7.76443 20.1746 8.08931 20.3046 8.34921 20.3046C10.201 20.3371 11.7604 21.2792 12.5076 22.8061C12.9299 22.8061 13.3523 22.8386 13.8071 22.8386C16.8284 22.8711 19.8172 22.4812 22.7086 21.6366C21.9289 19.4274 21.8964 17.0559 22.5786 14.8142C19.7198 15.6264 16.7634 16.0163 13.8071 15.9513C6.23753 15.9513 0.0649414 13.7097 0.0649414 10.9482V17.8031C0.0649414 17.998 0.0974287 18.2254 0.162403 18.4203C0.487276 18.3229 0.779662 18.2579 1.03956 18.1929Z" fill="#1971BD"/>
<path d="M26.6071 26.5421C25.4375 25.7624 24.4304 24.7553 23.6832 23.5532C20.4995 24.6253 17.1857 25.1451 13.8071 25.0801C13.6771 25.0801 13.5797 25.0801 13.4497 25.0801C13.5797 25.2101 13.7746 25.34 14.002 25.4375C15.7888 26.3471 16.7309 28.2314 16.471 30.0507C16.3736 30.7654 16.1137 31.4152 15.7888 31.9674C21.1492 31.6751 25.5025 30.2781 26.9969 28.4263C26.8995 27.7766 26.737 26.9644 26.6071 26.5421Z" fill="#1971BD"/>
<path d="M5.03553 21.5715C6.62741 23.1634 8.28426 24.7878 9.9736 26.4771C9.19391 26.4771 8.41421 26.4771 7.56954 26.4771C7.56954 28.1989 7.56954 29.8883 7.56954 31.5776C5.81523 31.5776 4.15838 31.5776 2.43655 31.5776C2.43655 29.8883 2.43655 28.2314 2.43655 26.5096C1.59188 26.5096 0.812183 26.5096 0 26.5096C1.72183 24.8203 3.37868 23.1959 5.03553 21.5715Z" fill="#1971BD"/>
</g>
<defs>
<clipPath id="clip0">
<rect width="31.6102" height="32" fill="white"/>
</clipPath>
</defs>
</svg>

<svg xmlns="http://www.w3.org/2000/svg" width="32" height="32" fill="none" xmlns:v="https://vecta.io/nano"><g clip-path="url(#A)" fill="#1971bd"><path d="M23.878 11.533l.617-1.169a30.33 30.33 0 0 1 3.021-4.321v.032-.032l.065.097V5.003C27.549 2.242 21.409 0 13.84 0S.097 2.242.097 5.003v3.639c0 2.761 6.14 5.003 13.742 5.003 3.314.065 6.595-.455 9.714-1.462.098-.227.195-.455.325-.65zm6.855 1.624c-.39-1.105-1.007-2.144-1.819-2.989a8.94 8.94 0 0 1-1.267-2.047 25.35 25.35 0 0 0-2.339 3.509c-.162.292-.325.617-.487.942-3.996 8.349 2.144 12.118 2.144 12.118a11.62 11.62 0 0 1 .357 2.372h.91l.13-2.437c1.17-1.17 2.144-2.534 2.859-4.028.65-2.469.455-5.068-.487-7.44zM1.04 18.193c2.469-.52 4.711 0 6.562 1.819.162.162.487.292.747.292 1.852.032 3.411.975 4.158 2.502l1.3.032a30.5 30.5 0 0 0 8.902-1.202c-.78-2.209-.812-4.581-.13-6.822-2.859.812-5.815 1.202-8.772 1.137-7.57 0-13.742-2.242-13.742-5.003v6.855a2.04 2.04 0 0 0 .097.617c.325-.097.617-.162.877-.227zm25.567 8.349c-1.17-.78-2.177-1.787-2.924-2.989-3.184 1.072-6.497 1.592-9.876 1.527h-.357c.13.13.325.26.552.357 1.787.91 2.729 2.794 2.469 4.613-.097.715-.357 1.364-.682 1.917 5.36-.292 9.714-1.689 11.208-3.541-.097-.65-.26-1.462-.39-1.884zm-21.571-4.97l4.938 4.906H7.57v5.101H2.437V26.51H0l5.036-4.938z"/></g><defs><clipPath id="A"><path fill="#fff" d="M0 0h31.61v32H0z"/></clipPath></defs></svg>
